azure-patterns/svg-cloud-circle-video.svg

<svg xmlns="http://www.w3.org/2000/svg" viewBox="0 0 73 73">
                                
                            
  <path d="M10.4971 12.8842C5.17421 18.7707 1.80513 26.4357 1.35425 34.8897H8.98165C9.40749 28.5398 11.9249 22.766 15.8701 18.2447L10.4971 12.8842Z" fill="#50E6FF"></path>
  <path d="M13.1902 63.3611C19.0892 68.6339 26.7417 71.9904 35.1832 72.4038V64.9266C28.8207 64.5008 23.0469 61.9583 18.5381 58.0131L13.1902 63.3611Z" fill="#0078D4"></path>
  <path d="M1.35425 38.6479C1.7926 47.1019 5.16169 54.7669 10.4721 60.6534L15.8325 55.2929C11.9124 50.7841 9.39496 44.9978 8.96913 38.6479H1.35425V38.6479Z" fill="#0078D4"></path>
  <path d="M63.4882 13.0102L58.2905 18.2079C62.2483 22.7167 64.7907 28.5155 65.204 34.8905H72.5058C72.0674 26.4991 68.7359 18.8842 63.4882 13.0102Z" fill="#50E6FF"></path>
  <path d="M38.9399 1.19183V8.6439C45.3024 9.0572 51.0887 11.5746 55.61 15.5073L60.8077 10.3097C54.9462 5.02432 47.3313 1.65524 38.9399 1.19183Z" fill="#50E6FF"></path>
  <path d="M35.1831 1.17719C26.7416 1.59049 19.1017 4.93453 13.2026 10.1948L18.5506 15.5428C23.0469 11.6101 28.8207 9.08013 35.1706 8.64177V1.17719H35.1831Z" fill="#50E6FF"></path>
  <path d="M55.9864 39.3624C55.999 39.2748 56.024 39.1871 56.0365 39.112C56.1367 38.5859 56.1868 38.0474 56.1868 37.4963C56.1868 32.762 52.3543 28.917 47.6201 28.917C46.9563 28.917 46.3175 28.9922 45.7038 29.1425C43.7375 26.0489 40.3058 24.02 36.3856 24.02C30.2987 24.02 25.3641 28.9546 25.3641 35.054C25.3641 35.2043 25.3641 35.3546 25.3766 35.5049C24.8255 35.317 24.2244 35.2168 23.5981 35.2168C20.6048 35.2168 18.175 37.6466 18.175 40.6399C18.175 43.4579 20.3293 45.7625 23.0596 46.038L47.6076 46.0881C50.8264 46.0881 53.6318 44.3096 55.1097 41.692C55.1473 41.6168 55.1974 41.5417 55.235 41.4666C55.4604 40.9906 55.7861 40.2767 55.9864 39.3624Z" fill="#50E6FF"></path>
  <path d="M72.5558 50.9119V50.8618L41.0442 50.9119V72.3538H72.5558V50.9119ZM52.8923 67.3314V56.2723L62.461 61.7956L52.8923 67.3314Z" fill="#0078D4"></path>
  <path d="M52.8926 67.332L62.4613 61.7962L52.8926 56.2729V67.332Z" fill="#50E6FF"></path>
  <path d="M72.519 38.6479H65.2173C65.0294 41.516 64.4157 44.2839 63.4263 46.8514L71.1163 46.8389C71.8928 44.2213 72.3687 41.4784 72.519 38.6479Z" fill="#0078D4"></path>
</svg>

<svg xmlns="http://www.w3.org/2000/svg" viewBox="0 0 73 73"><path d="M10.497 12.884A35.533 35.533 0 0 0 1.354 34.89h7.628a28.112 28.112 0 0 1 6.888-16.645l-5.373-5.36z" fill="#50E6FF"/><path d="M13.19 63.361c5.9 5.273 13.552 8.63 21.993 9.043v-7.477c-6.362-.426-12.136-2.969-16.645-6.914l-5.348 5.348zM1.354 38.648a35.508 35.508 0 0 0 9.118 22.005l5.36-5.36A28.21 28.21 0 0 1 8.97 38.648H1.354z" fill="#0078D4"/><path d="M63.488 13.01l-5.197 5.198a27.993 27.993 0 0 1 6.913 16.683h7.302a35.54 35.54 0 0 0-9.018-21.88zM38.94 1.192v7.452a28.125 28.125 0 0 1 16.67 6.863l5.198-5.197C54.946 5.024 47.33 1.655 38.94 1.192zM35.183 1.177c-8.441.413-16.081 3.758-21.98 9.018l5.348 5.348a28.144 28.144 0 0 1 16.62-6.901V1.177h.012zM55.986 39.362c.013-.087.038-.175.05-.25.1-.526.15-1.065.15-1.616 0-4.734-3.832-8.579-8.566-8.579-.664 0-1.302.075-1.916.225a11.002 11.002 0 0 0-9.318-5.122c-6.087 0-11.022 4.935-11.022 11.034 0 .15 0 .3.013.45a5.514 5.514 0 0 0-1.779-.287 5.425 5.425 0 0 0-5.423 5.423c0 2.818 2.154 5.123 4.885 5.398l24.548.05c3.218 0 6.024-1.778 7.502-4.396.037-.075.087-.15.125-.225.225-.476.551-1.19.751-2.105z" fill="#50E6FF"/><path d="M72.556 50.912v-.05l-31.512.05v21.442h31.512V50.912zm-19.664 16.42v-11.06l9.569 5.524-9.569 5.535z" fill="#0078D4"/><path d="M52.893 67.332l9.568-5.536-9.568-5.523v11.059z" fill="#50E6FF"/><path d="M72.519 38.648h-7.302a27.897 27.897 0 0 1-1.79 8.203l7.69-.012a35.364 35.364 0 0 0 1.402-8.191z" fill="#0078D4"/></svg>
